!!!COM: Robert Franz
!!!CNT: Deutscher
!!!TXO: Deutsche 
!!!OTL: Die Perle
!!!OPS: Op. 48
!!!ONM: No. 4
!!!ONB: Original key: A Major
!!!LYR: Fr. Ruckert
!!!ENC: Brian Bice
!!!YOR: Vocal Album, G. Schirmer, Inc., 1907
!!!ODT: 1878/
!!NB: Vocal melody and text only encoded.
**kern	**silbe
*clefG2	*
*k[b-e-a-d-g-c-]	*
*M3/8	*
=0	=0
4r	.
{8b-	{Der
=1	=1
8dd-	Him-
8g-	-mel
8a-	hat
=2	=2
(8b-	ei
8a-)	|
8g-	-ne
=3	=3
8f	Thra2-
8g-	-ne
8a-	ge-
=4	=4
4d-}	-weint,}
{8d-	{die
=5	=5
8.g-	hat
16f	sich
(16e-	in's
16f)	|
=6	=6
(8.g-	Meer
16d-)	|
16B-	zu
16c-	ver-
=7	=7
4d-	-lie-
16c-	-ren
16c-	ge-
=8	=8
4B-}	-meint.}
{8b-	{Die
=9	=9
(8a-	Mu-
8g-)	|
8f	-schel
=10	=10
(8g-	kam
8b-)	|
8ee-	und
=11	=11
4dd-	schloss
8ccn	sie
=12	=12
4b-}	ein:}
8r	.
=13	=13
{8dd-	{Du
(16cc-	sollst
16b-)	|
(16a-	nun
16g-)	|
=14	=14
4g-	mei-
8cc-	-ne
=15	=15
4b-	Per-
8a-	-le
=16	=16
4g-}	sein.}
8r	.
=22	=22
{8b-	{Du
8f	sollst
8a-	nicht
=23	=23
4g-	vor
8f	den
=24	=24
4e-	Wo-
8ccn	-gen
=25	=25
4b-	za-
8an}	-gen,}
=26	=26
{8ccn	{ich
8gn	will
8b-	hin-
=27	=27
(8a-	-durch
8gn)	|
8f	dich
=28	=28
4ccn	ru-
8f	-hig
=29	=29
4gn	tra-
8cn}	-gen.}
=30	=30
{8ccn	{O
8b-	du
(16a-	mein
16g-)	|
=31	=31
4f}	Schmerz,}
8r	.
=32	=32
{8dd-	{du
(16ccn	mei-
8ee-)	|
16dd-	-ne
=33	=33
4ccn}	Lust,}
{8b-	{du
=34	=34
4a-	Him-
8gn	-mels-
=35	=35
4f	-thra2n'
8a-	in
=36	=36
(8ccn	mei-
8e-)	|
8g-	-ner
=37	=37
[4.f	Brust!
=38	=38
4f]}	|}
8r	.
=39	=39
{8dd-	{Gieb,
8g-	Him-
8a-	-mel,
=40	=40
4b-	dass
16a-	ich
16a-	in
=41	=41
8g-	rei-
8f	-nem
8e-	Ge-
=42	=42
(16d-	-mu2-
16c-)	|
8B-}	-the}
{8d-	{den
=43	=43
(8.g-	rein-
16f)	|
(16e-	-sten
16f)	|
=44	=44
4g-	dei-
8d-	-ner
=45	=45
4e-	Trop-
(16d-	-fen
16c-)	|
=46	=46
(16B-	hu2-
16c-)	|
8d-}	-te.}
8r	.
*-	*-
